X:1
T:[ID 2-73a]
T:[ID 2-73a]
T:Bezeichnung standardisiert: Schottisch Schottisch
T:Urheber unbekannt Datum in der hier transkribierten schriftlichen Quelle: 1776 - 1791
C:Urheber unbekannt
C:Datum in der hier transkribierten schriftlichen Quelle: 1776 - 1791
L:1/8
M:3/8
K:G
V:1 treble 
V:1
 g2 d/e/ | dcB | ABc | B/A/B/c/B | g2 d/e/ | dcB | ABc | B2 B :: gfg | d2 d | gfg | e2 e/f/ | gfg | %13
 dcB | AGF | G2 G :| %16

